assets/images/svg/lemon_24.svg

<svg width="24" height="24" viewBox="0 0 24 24" fill="none" xmlns="http://www.w3.org/2000/svg">
<path d="M5.86919 19.1065C3.18489 16.5434 2.99997 12.4301 5.07442 8.83877C7.14888 5.24744 10.8047 3.35088 14.3672 4.39291C14.3945 4.32649 14.4262 4.26197 14.4621 4.19978C14.9365 3.37947 16.038 3.12611 16.923 3.63728C17.808 4.14846 18.1392 5.22611 17.6648 6.04783C17.6289 6.11004 17.5889 6.16978 17.545 6.22666C20.2293 8.79002 20.414 12.9028 18.3396 16.4942C16.2651 20.0855 12.6093 21.9821 9.04685 20.94C9.01954 21.0064 8.98783 21.071 8.95192 21.1331C8.47755 21.9535 7.37599 22.2068 6.49099 21.6956C5.60599 21.1845 5.27458 20.1059 5.74919 19.2844C5.7852 19.2225 5.82529 19.1631 5.86919 19.1065Z" fill="white"/>
<path d="M17.6843 4.4308C17.9433 4.93869 17.9567 5.54127 17.6649 6.04635C17.629 6.10855 17.589 6.1683 17.5451 6.22517C20.2294 8.78877 20.4141 12.9016 18.3396 16.4929C16.2652 20.0842 12.6094 21.9808 9.04691 20.9388C9.0196 21.0052 8.98789 21.0697 8.95199 21.1319C8.66254 21.6325 8.14152 21.9208 7.57855 21.9555C6 21.5 5.7082 20.0051 6 19.5C6.0359 19.4378 7.67391 20.218 7.71777 20.1611C5.03347 17.598 2 16 5.50005 8.49916C7.5745 4.90783 10.937 2.95844 14.5 4C14.5277 3.93355 15.4637 3.56275 15.5 3.50059C15.7878 3.00067 17.1214 4.46549 17.6843 4.4308Z" fill="#FBDB7B"/>
<path d="M7.21875 19.6355C10.6875 18.2976 13.1272 16.3975 14.5378 13.9353C15.8459 11.6523 16.7645 8.5068 17.2936 4.49867C17.421 4.46218 17.552 4.43971 17.6843 4.43164C17.9433 4.93953 17.9566 5.54211 17.6648 6.04719C17.6289 6.1094 17.5889 6.16914 17.5451 6.22602C20.2294 8.78984 20.4141 12.9027 18.3396 16.494C16.2652 20.0853 12.6094 21.9819 9.04688 20.9398C9.01957 21.0063 8.98786 21.0708 8.95195 21.133C8.6625 21.6336 8.14148 21.9219 7.57852 21.9566C7.31953 21.4487 7.30617 20.8461 7.59797 20.341C7.63387 20.2788 7.67388 20.2191 7.71773 20.1622C7.54258 19.9952 7.37604 19.8194 7.21875 19.6355Z" fill="#F9AF49"/>
<path d="M7.46107 22.4385C7.03596 22.4373 6.61866 22.3241 6.25123 22.1103C5.7253 21.8115 5.33243 21.3241 5.15201 20.7467C4.98794 20.2119 5.02755 19.6599 5.2631 19.1764C4.04294 17.8883 3.33443 16.2423 3.20833 14.3907C3.07755 12.4707 3.57912 10.4678 4.65865 8.59861C5.49162 7.15627 6.59857 5.9408 7.85951 5.08299L8.39857 5.87681C7.25623 6.65377 6.25029 7.76095 5.48904 9.07885C4.50466 10.7823 4.0474 12.5963 4.16505 14.3256C4.28365 16.0686 4.98724 17.6019 6.19943 18.7592L6.51185 19.0576L6.24794 19.3996C6.21728 19.439 6.18925 19.4804 6.16404 19.5235C6.00209 19.8048 5.9681 20.1381 6.06865 20.4646C6.17799 20.8101 6.41448 21.1012 6.73029 21.279C7.38396 21.6563 8.19349 21.4822 8.53498 20.8913C8.56023 20.8476 8.58255 20.8023 8.60177 20.7556L8.76584 20.3572L9.18021 20.4784C10.7901 20.949 12.4704 20.7915 14.039 20.0225C15.596 19.2599 16.939 17.9565 17.9229 16.2531C18.9068 14.5496 19.3645 12.7356 19.2469 11.0063C19.1283 9.2633 18.4247 7.73002 17.2125 6.57267L16.901 6.27431L17.1649 5.93236C17.1957 5.8924 17.2238 5.85043 17.249 5.80674C17.411 5.52549 17.445 5.19197 17.3444 4.86572C17.2351 4.52019 16.9986 4.22908 16.6828 4.05127C16.0291 3.67392 15.2196 3.84806 14.8781 4.43892C14.8528 4.48263 14.8305 4.52796 14.8113 4.57463L13.9235 4.20924C13.959 4.12308 14.0002 4.03938 14.0468 3.95869C14.6526 2.90963 16.0504 2.57799 17.1623 3.2197C17.6882 3.51856 18.0811 4.00592 18.2615 4.5833C18.4256 5.11814 18.386 5.6701 18.1504 6.15361C19.3708 7.44267 20.0791 9.08916 20.2052 10.9407C20.336 12.8607 19.8344 14.8637 18.7549 16.7328C17.6754 18.602 16.1908 20.0375 14.4621 20.8843C12.7947 21.7009 11.0137 21.9111 9.28685 21.4991C8.87646 22.1059 8.18505 22.4385 7.46107 22.4385Z" fill="black"/>
<path d="M10.5101 6.19758C11.8714 6.19758 13.1038 5.58164 14.2074 4.34977C13.1038 3.11789 11.8714 2.50195 10.5101 2.50195C9.14888 2.50195 7.91646 3.11789 6.81287 4.34977C7.91646 5.58164 9.14888 6.19758 10.5101 6.19758Z" fill="#D2F2CD"/>
<path d="M10.0985 3.98242H13.6505C13.7204 3.98242 13.7876 4.01023 13.8371 4.05972C13.8866 4.10921 13.9144 4.17634 13.9144 4.24633V4.43828C13.9144 4.50827 13.8866 4.5754 13.8371 4.62489C13.7876 4.67438 13.7204 4.70219 13.6505 4.70219H10.0985C10.0285 4.70219 9.96138 4.67438 9.91189 4.62489C9.8624 4.5754 9.83459 4.50827 9.83459 4.43828V4.24633C9.83459 4.17634 9.8624 4.10921 9.91189 4.05972C9.96138 4.01023 10.0285 3.98242 10.0985 3.98242Z" fill="#72BD87"/>
<path d="M10.6038 6.67711C9.10658 6.67711 7.74228 6.00164 6.54908 4.66969L6.26221 4.3493L6.54908 4.02891C7.74252 2.69672 9.10658 2.02148 10.6038 2.02148C12.101 2.02148 13.4653 2.69695 14.6585 4.02891L14.9453 4.3493L14.6585 4.66969C13.4653 6.00187 12.101 6.67711 10.6038 6.67711ZM7.57025 4.3493C7.98838 4.76062 8.42549 5.08172 8.87408 5.30578C9.41093 5.57624 10.0037 5.71712 10.6048 5.71712C11.206 5.71712 11.7987 5.57624 12.3356 5.30578C12.7842 5.08148 13.2213 4.76062 13.6394 4.3493C13.2213 3.93797 12.7842 3.61687 12.3356 3.39281C11.7987 3.12237 11.2059 2.9815 10.6048 2.9815C10.0037 2.9815 9.41094 3.12237 8.87408 3.39281C8.42455 3.61711 7.98721 3.93797 7.57025 4.3493Z" fill="black"/>
<path d="M7.27781 20.4145C7.19551 20.4146 7.11465 20.3929 7.04343 20.3516C5.85234 19.6645 4.99851 18.9409 4.43367 18.141C4.39439 18.091 4.3657 18.0335 4.34936 17.972C4.33301 17.9105 4.32935 17.8464 4.33859 17.7834C4.34784 17.7205 4.36979 17.6601 4.40312 17.6059C4.43646 17.5518 4.48046 17.5049 4.53247 17.4683C4.58448 17.4317 4.6434 17.406 4.70564 17.3929C4.76788 17.3798 4.83214 17.3795 4.89451 17.392C4.95687 17.4045 5.01604 17.4295 5.06842 17.4656C5.12079 17.5017 5.16526 17.5481 5.19913 17.602C5.68406 18.288 6.44132 18.922 7.51265 19.5405C7.60212 19.592 7.67207 19.6717 7.71164 19.767C7.7512 19.8624 7.75816 19.9682 7.73145 20.0679C7.70473 20.1677 7.64582 20.2558 7.56388 20.3186C7.48193 20.3815 7.38153 20.4155 7.27827 20.4154L7.27781 20.4145Z" fill="black"/>
</svg>

<svg xmlns="http://www.w3.org/2000/svg" width="24" height="24" fill="none">
    <path fill="#fff"
        d="M5.87 19.1C3.18 16.55 3 12.44 5.07 8.85c2.08-3.6 5.73-5.49 9.3-4.45.02-.06.06-.13.1-.19.47-.82 1.57-1.07 2.45-.56.89.5 1.22 1.59.74 2.4a1.6 1.6 0 0 1-.11.19c2.68 2.56 2.86 6.67.79 10.26-2.07 3.6-5.73 5.5-9.3 4.45a1.6 1.6 0 0 1-.09.2c-.47.81-1.57 1.07-2.46.56-.88-.52-1.22-1.6-.74-2.42l.12-.17Z" />
    <path fill="#FBDB7B"
        d="M17.68 4.43a1.68 1.68 0 0 1-.13 1.8c2.68 2.56 2.86 6.67.79 10.26-2.07 3.6-5.73 5.5-9.3 4.45-.02.07-.05.13-.09.2-.29.5-.8.78-1.37.82C6 21.5 5.7 20 6 19.5c.04-.06 1.67.72 1.72.66C5.03 17.6 2 16 5.5 8.5c2.07-3.6 5.44-5.54 9-4.5.03-.07.96-.44 1-.5.29-.5 1.62.97 2.18.93Z" />
    <path fill="#F9AF49"
        d="M7.22 19.64c3.47-1.34 5.9-3.24 7.32-5.7 1.3-2.29 2.22-5.43 2.75-9.44.13-.04.26-.06.4-.07a1.68 1.68 0 0 1-.14 1.8c2.68 2.56 2.86 6.67.79 10.26-2.07 3.6-5.73 5.5-9.3 4.45a1.68 1.68 0 0 1-1.47 1.02 1.68 1.68 0 0 1 .15-1.8 7.14 7.14 0 0 1-.5-.52Z" />
    <path fill="#000"
        d="M7.46 22.44a2.42 2.42 0 0 1-2.3-1.7 2.13 2.13 0 0 1 .1-1.56 7.6 7.6 0 0 1-2.05-4.79c-.13-1.92.37-3.92 1.45-5.8a10.74 10.74 0 0 1 3.2-3.5l.54.79a9.78 9.78 0 0 0-2.91 3.2 9.27 9.27 0 0 0-1.32 5.25 6.64 6.64 0 0 0 2.03 4.43l.31.3-.26.34a1.13 1.13 0 0 0-.18 1.06c.1.35.34.64.66.82.65.38 1.46.2 1.8-.39l.07-.13.17-.4.41.12c1.61.47 3.29.31 4.86-.46a9.28 9.28 0 0 0 3.88-3.77 9.28 9.28 0 0 0 1.33-5.24 6.64 6.64 0 0 0-2.04-4.44l-.3-.3.25-.34.09-.12c.16-.28.2-.62.1-.94-.11-.35-.35-.64-.67-.82-.65-.38-1.46-.2-1.8.39l-.07.13-.89-.36.13-.25c.6-1.05 2-1.38 3.11-.74.53.3.92.79 1.1 1.36.17.54.13 1.09-.11 1.57a7.6 7.6 0 0 1 2.06 4.8c.13 1.91-.38 3.91-1.46 5.78a10.23 10.23 0 0 1-4.29 4.15 7.6 7.6 0 0 1-5.17.62c-.41.6-1.1.94-1.83.94Z" />
    <path fill="#D2F2CD"
        d="M10.51 6.2a4.9 4.9 0 0 0 3.7-1.85 4.9 4.9 0 0 0-3.7-1.85 4.9 4.9 0 0 0-3.7 1.85 4.9 4.9 0 0 0 3.7 1.85Z" />
    <path fill="#72BD87"
        d="M10.1 3.98h3.55a.26.26 0 0 1 .26.27v.19a.26.26 0 0 1-.26.26H10.1a.26.26 0 0 1-.27-.26v-.2a.26.26 0 0 1 .27-.26Z" />
    <path fill="#000"
        d="M10.6 6.68c-1.5 0-2.86-.68-4.05-2.01l-.29-.32.29-.32c1.2-1.33 2.56-2 4.05-2 1.5 0 2.87.67 4.06 2l.29.32-.3.32a5.37 5.37 0 0 1-4.05 2ZM7.57 4.35c.42.41.86.73 1.3.96a3.85 3.85 0 0 0 3.47 0c.44-.23.88-.55 1.3-.96a5.18 5.18 0 0 0-1.3-.96 3.85 3.85 0 0 0-3.47 0c-.45.23-.88.55-1.3.96ZM7.28 20.41a.47.47 0 0 1-.24-.06 7.97 7.97 0 0 1-2.6-2.2.47.47 0 1 1 .76-.55 7.1 7.1 0 0 0 2.31 1.94.47.47 0 0 1-.23.88Z" />
</svg>
